X: 452
T:Howie Meeker's Jig
R:jig
M:6/8
L:1/8
C:Les Smith
N:Posted to the woodenflute mailing list November 2001
Z:Les Smith
K:Emin
E2~E AFe|e2B {c}BAF|E2~E AFf|e2A {B}A^ce|f2~f fed|!
e2~e edc|~e3 ~B3|1e2B {c}BAF:|2e2z dde|:!
f2~f fed|f2~f fed|e2~e edc|e~e{f}e {f}ez=3Df|!
f2~f fed|f2~f fef|~b3 ~f3|1B2z dde:|2B2B {c}BAF|

